X:1
T:Title
%%score 1 2
L:1/8
M:4/2
K:C
V:1 treble nm="Part_1"
V:2 bass nm="Part_2"
V:1
 D4 E4 E4 ^F4 |[M:9/2] G8 D4 F8 F4 E4 D6 D2 | C4 C4 D4 E4 ^F4 G4 E4 =F6 E2 | %3
w: Ie- sus Ie- sus|Ie- sus Rex ad- mi- ra- bi-|lis et Tri- um- pha- tor no- * bi-|
[M:6/2] F2 C2 D4 C3 F E2 E2 ^FGE>E D4 | E4 E2 D2 E2 ^F2 G6 D2 D4 | F4 F2 E2 F2 G2 A6 E2 E4 | %6
w: lis dul- ce- do dul- ce\-d * i- nef- fa- bi- lis|To- tus de- si- de- ra- bi- lis|to- tus de- si- de- ra- bi- lis|
[M:9/2] ^F8 G4 E8 E4 D4 C6 C2 |[M:2/2] B, E2 E D2 ^CE |[M:3/2] ^D E2 D E2 E4 E2 | %9
w: A- mor Ie- sus con- ti- nu-|us mi- hi lan- guor as-|si- * du- us mi- hi|
[M:6/2] D4 ^D4 E4 z E G3 F/E/=DD C4 |[M:9/2] z12 z12 z12 | E8 ^F4 G8 E4 F4 D4 ^C4 | %12
w: lan- * guor as- si- * * * du- us||mi- hi Ie- sus mel li- flu-|
 D12 ^F8 G4 E8 D4 | G4 G4 ^F4 G8 D4 E6 D2 E2 F2 |[M:6/2] G6 D2 E4 G8 F4 | E8 E4 F4 D4 D4 | %16
w: us fruc- tus vi- tæ|per- pe- tu- us quo- cum- que lo- co|fu- e- ro sem- per|Ie- sum de- si- de-|
[M:9/2] C8 F4 E8 F4 D8 G4 |[M:12/2] ^F4 G6 F2 G12 z12 z12 |[M:3/2] z12 |[M:3/2] z4 z D G2 EE A2 | %20
w: ro A- mo- re Ie- sus|lan- * gue- o||A- mo- re A- mo-|
[M:4/2] ^F2 G4 E2 ^D2 E4 D2 | EE G/F/E/D/ EC z E G/F/E/D/EC DED>D |[M:6/2] C8 D4 E6 D2 E2 ^F2 | %23
w: re Ie- sus lan- * gue-|o et cor- * * * * de et cor- * * * * de to- tus ar- de|o quo- cum- que lo- co|
[M:9/2] G6 D2 E4 G8 F4 E8 E4 |[M:15/2] D4 D6 D2 D12 F8 E4 D4 D4 G4 ^F4 G6 F2 | G8 |] %26
w: fu- e- ro sem- per Ie- sum|de- si- de- ro sem- per Ie- sum de- si- * de|ro|
V:2
 G,,4 C,4 A,,4 D,4 |[M:9/2] G,,8 G,,4 D,8 F,4 C,4 G,,6 G,,2 | C,4 C,4 B,,4 C,4 D,4 B,,4 C,12 | %3
[M:6/2] F,,2 F,,2 _B,,4 F,,3 F,, C,2 A,,2 D,G,, C,2 G,,4 | C,4 C,2 B,,2 C,2 A,,2 G,,6 G,,2 G,,4 | %5
 D,4 D,2 ^C,2 D,2 B,,2 A,,6 A,,2 A,,4 |[M:9/2] D,8 G,,4 C,8 C,4 G,,4 A,,6 A,,2 | %7
[M:2/2] E, E,2 ^C, D,2 A,,A,, |[M:3/2] B,,4 E,2 ^C,4 C,2 | %9
[M:6/2] D,4 B,,4 A,,3 A,, C,3 B,,/A,,/ G,,4 C,4 |[M:9/2] E,8 ^F,4 G,8 E,4 F,4 D,4 E,4 | %11
 A,,8 D,4 G,,8 C,4 D,4 D,4 A,,4 | D,12 D,8 B,,4 C,8 G,,4 | %13
 G,,4 G,,4 D,4 G,,8 G,,4 C,6 B,,2 C,2 A,,2 |[M:6/2] G,,6 G,,2 C,4 G,,8 D,4 | %15
 C,8 C,4 A,,4 _B,,4 B,,4 |[M:9/2] F,,8 F,,4 C,8 A,,4 _B,,8 G,,4 | %17
[M:12/2] D,8 D,4 G,,8 C,4 B,,8 C,4 A,,8 D,4 |[M:3/2] ^C,4 D,6 C,2 | %19
[M:3/2] D,3 D, G,2 E,E, A,2 D,2 |[M:4/2] D,2 B,,4 C,2 B,,8 | E,2 C,2 C,4 C,4 G,,4 | %22
[M:6/2] C,8 G,,4 C,6 B,,2 C,2 A,,2 |[M:9/2] G,,6 G,,2 C,4 G,,8 D,4 A,,8 C,4 | %24
[M:15/2] G,,4 D,6 D,2 G,,12 D,8 ^C,4 D,4 D,4 B,,4 D,12 | G,,8 |] %26

